img/flags/kz.svg

<svg width="20" height="14" viewBox="0 0 20 14" fill="none" xmlns="http://www.w3.org/2000/svg">
<rect width="20" height="14" rx="3" fill="#03BCDB"/>
<path d="M10.9522 8.40006C12.2672 8.40006 13.3332 7.3554 13.3332 6.06673C13.3332 4.77807 12.2672 3.7334 10.9522 3.7334C9.63728 3.7334 8.57129 4.77807 8.57129 6.06673C8.57129 7.3554 9.63728 8.40006 10.9522 8.40006Z" fill="#FFDA2C"/>
<path fill-rule="evenodd" clip-rule="evenodd" d="M7.61914 6.53345L8.57152 8.40011L10.9525 9.33345L13.3334 8.40011L14.2858 6.53345V9.33345L10.9525 10.2668L7.61914 9.33345V6.53345Z" fill="#FFDA2C"/>
<path fill-rule="evenodd" clip-rule="evenodd" d="M1.90479 2.3287C1.90479 2.0739 2.12574 1.8667 2.38098 1.8667C2.64383 1.8667 2.85717 2.0683 2.85717 2.3287V4.2047C2.85717 4.4595 2.63621 4.6667 2.38098 4.6667C2.11812 4.6667 1.90479 4.4651 1.90479 4.2047V2.3287ZM2.85717 4.19537C2.85717 3.94057 3.07812 3.73337 3.33336 3.73337C3.59621 3.73337 3.80955 3.93497 3.80955 4.19537V6.07137C3.80955 6.32617 3.58859 6.53337 3.33336 6.53337C3.0705 6.53337 2.85717 6.33177 2.85717 6.07137V4.19537ZM2.85717 7.9287C2.85717 7.6739 3.07812 7.4667 3.33336 7.4667C3.59621 7.4667 3.80955 7.6683 3.80955 7.9287V9.8047C3.80955 10.0595 3.58859 10.2667 3.33336 10.2667C3.0705 10.2667 2.85717 10.0651 2.85717 9.8047V7.9287ZM1.90479 9.79537C1.90479 9.54057 2.12574 9.33337 2.38098 9.33337C2.64383 9.33337 2.85717 9.53497 2.85717 9.79537V11.6714C2.85717 11.9262 2.63621 12.1334 2.38098 12.1334C2.11812 12.1334 1.90479 11.9318 1.90479 11.6714V9.79537ZM1.90479 6.0667C1.90479 5.8091 2.12574 5.60003 2.38098 5.60003C2.64383 5.60003 2.85717 5.81657 2.85717 6.0667C2.85717 6.3243 2.63621 6.53337 2.38098 6.53337C2.11812 6.53337 1.90479 6.31683 1.90479 6.0667ZM2.85717 2.33337C2.85717 2.07577 3.07812 1.8667 3.33336 1.8667C3.59621 1.8667 3.80955 2.08323 3.80955 2.33337C3.80955 2.59097 3.58859 2.80003 3.33336 2.80003C3.0705 2.80003 2.85717 2.5835 2.85717 2.33337ZM1.90479 7.00003C1.90479 6.74243 2.12574 6.53337 2.38098 6.53337C2.64383 6.53337 2.85717 6.7499 2.85717 7.00003C2.85717 7.25763 2.63621 7.4667 2.38098 7.4667C2.11812 7.4667 1.90479 7.25017 1.90479 7.00003ZM2.85717 11.6667C2.85717 11.4091 3.07812 11.2 3.33336 11.2C3.59621 11.2 3.80955 11.4166 3.80955 11.6667C3.80955 11.9243 3.58859 12.1334 3.33336 12.1334C3.0705 12.1334 2.85717 11.9168 2.85717 11.6667ZM1.90479 7.93337C1.90479 7.67577 2.12574 7.4667 2.38098 7.4667C2.64383 7.4667 2.85717 7.68323 2.85717 7.93337C2.85717 8.19097 2.63621 8.40003 2.38098 8.40003C2.11812 8.40003 1.90479 8.1835 1.90479 7.93337Z" fill="#FFDA2C"/>
</svg>

<svg width="20" height="14" viewBox="0 0 20 14" fill="none" xmlns="http://www.w3.org/2000/svg"><rect width="20" height="14" rx="3" fill="#03BCDB"/><path d="M10.952 8.4c1.315 0 2.381-1.045 2.381-2.333 0-1.289-1.066-2.334-2.38-2.334-1.316 0-2.382 1.045-2.382 2.334 0 1.288 1.066 2.333 2.381 2.333z" fill="#FFDA2C"/><path fill-rule="evenodd" clip-rule="evenodd" d="M7.62 6.533L8.571 8.4l2.38.933 2.381-.933.953-1.867v2.8l-3.333.934-3.334-.934v-2.8zM1.905 2.329c0-.255.22-.462.476-.462.263 0 .476.201.476.462v1.876a.475.475 0 01-.476.462.466.466 0 01-.476-.462V2.329zm.952 1.866c0-.254.221-.462.476-.462.263 0 .477.202.477.462v1.876a.475.475 0 01-.477.462.466.466 0 01-.476-.462V4.195zm0 3.734c0-.255.221-.462.476-.462.263 0 .477.201.477.462v1.876a.475.475 0 01-.477.462.466.466 0 01-.476-.462V7.929zm-.952 1.866c0-.254.22-.462.476-.462.263 0 .476.202.476.462v1.876a.475.475 0 01-.476.462.466.466 0 01-.476-.462V9.795zm0-3.728a.477.477 0 01.952 0 .477.477 0 01-.952 0zm.952-3.734a.477.477 0 01.953 0 .477.477 0 01-.953 0zM1.905 7a.477.477 0 01.952 0 .477.477 0 01-.952 0zm.952 4.667a.477.477 0 01.953 0 .477.477 0 01-.953 0zm-.952-3.734a.477.477 0 01.952 0 .477.477 0 01-.952 0z" fill="#FFDA2C"/></svg>
